!!!OTL: JETZT KOMMT DIE ZEIT
!!!ARE: Europa, Mitteleuropa, Deutschland, Hessen, Odenwald
!!!SCT: E0537B
!!!YEM: Copyright 1995, estate of Helmut Schaffrath.
**kern
*ICvox
*Ivox
*M4/4
*k[f#]
*G:
{4d
=1
4g
4d
4b
8a
8g
=2
4.f#
8g
4a}
{8dd
8cc
=3
4b
4a
4g
4b
=4
2a
4r}
{8a
8b
=5
4cc
4ee
4cc
4a
=6
4b
4dd
4b}
{8g
8b
=7
4a
4cc
4a
4f#
=8
2g
4r}
==
!!!AGN: Liebes - Lied
!!!ONB: ESAC (Essen Associative Code) Database: ERK1
!!!AMT: simple quadruple
!!!AIN: vox
!!!EED: Helmut Schaffrath
!!!EEV: 1.0
*-
